X:1
T:[ID 4-48ra]
T:[ID 4-48ra]
T:Bezeichnung standardisiert: Die Zeiten Br\"uder; Die Zeiten Bruder In dieser Quelle auch als: Gieque. Die Zeiten Bruder
T:Urheber unbekannt Datum in der hier transkribierten schriftlichen Quelle: 1796
C:Urheber unbekannt
C:Datum in der hier transkribierten schriftlichen Quelle: 1796
L:1/8
M:6/8
K:D
V:1 treble 
V:1
 A | dcB AGF | EFG F2 A | BAB cBc | dd/e/f/e/ d2 :: A | Ace ecA | dB^G A2 A | Ace ecA | dB^G A2 A | %10
 FDA def | edc d2 A | FDA def | edc d2 :| %14

